src/icons/solid/status/error.svg

<svg width="24" height="24" viewBox="0 0 24 24" fill="none" xmlns="http://www.w3.org/2000/svg">
<g clip-path="url(#clip0_1_2085)">
<path fill-rule="evenodd" clip-rule="evenodd" d="M13.6296 3.85814L22.6773 17.8919C23.073 18.4988 23.1146 19.2837 22.7815 19.9326C22.4379 20.6023 21.7819 21.0105 21.0531 21.0105H2.94711C2.21829 21.0105 1.55194 20.5919 1.21876 19.9326C0.895996 19.2837 0.927232 18.4988 1.32288 17.8919L10.3811 3.85814C10.7351 3.32442 11.339 3 12.0053 3C12.6717 3 13.286 3.31395 13.6296 3.85814ZM12.0365 15.6314C11.4742 15.6314 11.0161 15.1709 11.0161 14.6058V7.14417C11.0161 6.57906 11.4742 6.11859 12.0365 6.11859C12.5987 6.11859 13.0568 6.57906 13.0568 7.14417V14.6058C13.0568 15.1709 12.5987 15.6314 12.0365 15.6314ZM12.0366 19.2209C11.4744 19.2209 10.9434 18.6767 10.9434 18.1116C10.9434 17.5465 11.4744 17.0128 12.0366 17.0128C12.5988 17.0128 13.1402 17.5465 13.1402 18.1116C13.1402 18.6767 12.5988 19.2209 12.0366 19.2209Z" fill="#1D1B20"/>
</g>
<defs>
<clipPath id="clip0_1_2085">
<rect width="24" height="24" fill="white"/>
</clipPath>
</defs>
</svg>

<svg xmlns="http://www.w3.org/2000/svg" width="24" height="24" fill="none" viewBox="0 0 24 24"><g clip-path="url(#a)"><path fill="currentColor" fill-rule="evenodd" d="m13.63 3.858 9.047 14.034c.396.607.438 1.392.105 2.04-.344.67-1 1.079-1.729 1.079H2.947a1.94 1.94 0 0 1-1.728-1.078 2.07 2.07 0 0 1 .104-2.041L10.38 3.858A1.94 1.94 0 0 1 12.005 3c.667 0 1.281.314 1.625.858m-1.594 11.773c-.562 0-1.02-.46-1.02-1.025V7.144c0-.565.458-1.025 1.02-1.025s1.02.46 1.02 1.025v7.462c0 .565-.457 1.025-1.02 1.025m0 3.59c-.562 0-1.093-.544-1.093-1.11 0-.564.531-1.098 1.094-1.098.562 0 1.103.534 1.103 1.099s-.541 1.109-1.103 1.109" clip-rule="evenodd"/></g><defs><clipPath id="a"><path fill="currentColor" d="M0 0h24v24H0z"/></clipPath></defs></svg>
